ui/StatusQ/src/assets/img/icons/fees.svg

<svg fill="none" height="20" viewBox="0 0 18 20" width="18" xmlns="http://www.w3.org/2000/svg"><path d="m16.8536 1.1484c-.1953.19526-.5119.19526-.7072 0l-.7928-.792893c-.1953-.195262-.5119-.195263-.7072-.000001l-.7928.792894c-.1953.19526-.5119.19526-.7072 0l-.7928-.792893c-.1953-.195262-.5119-.195263-.7072-.000001l-.7928.792894c-.1953.19526-.5119.19526-.7072 0l-.79285-.792893c-.19526-.195262-.51184-.195263-.7071-.000001l-.7929.792894c-.19526.19526-.51184.19526-.7071 0l-.7929-.792893c-.19526-.195262-.51184-.195263-.7071-.000001l-.7929.792894c-.19526.19526-.51184.19526-.7071 0l-.7929-.792893c-.19526-.195262-.51184-.195263-.7071-.000001l-.7929.792894c-.19526.19526-.51184.19526-.7071 0l-.292896-.292893c-.314983-.314982-.853554-.091899-.853554.353553v17.58574c0 .4455.538571.6686.853553.3536l.292897-.2929c.19526-.1953.51184-.1953.7071 0l.7929.7929c.19526.1953.51184.1953.7071 0l.7929-.7929c.19526-.1953.51184-.1953.7071 0l.7929.7929c.19526.1953.51184.1953.7071 0l.7929-.7929c.19526-.1953.51184-.1953.7071 0l.7929.7929c.19526.1953.51184.1953.7071 0l.79285-.7929c.1953-.1953.5119-.1953.7072 0l.7928.7929c.1953.1953.5119.1953.7072 0l.7928-.7929c.1953-.1953.5119-.1953.7072 0l.7928.7929c.1953.1953.5119.1953.7072 0l.7928-.7929c.1953-.1953.5119-.1953.7072 0l.2928.2929c.315.315.8536.0919.8536-.3536v-17.58574c0-.445452-.5386-.668536-.8536-.353553zm-.8536 15.4436c0 .2761-.2239.5-.5.5h-13c-.27614 0-.5-.2239-.5-.5v-13.18005c0-.27614.22386-.5.5-.5h13c.2761 0 .5.22386.5.5zm-13-3.09c0-.2762.22386-.5.5-.5h11c.2761 0 .5.2238.5.5v1c0 .2761-.2239.5-.5.5h-11c-.27614 0-.5-.2239-.5-.5zm0-4.00005c0-.27614.22386-.5.5-.5h11c.2761 0 .5.22386.5.5v1.00005c0 .2761-.2239.5-.5.5h-11c-.27614 0-.5-.2239-.5-.5zm0-4c0-.27614.22386-.5.5-.5h11c.2761 0 .5.22386.5.5v1c0 .27615-.2239.5-.5.5h-11c-.27614 0-.5-.22385-.5-.5z" fill="#000"/></svg>

<svg width="18" height="20" viewBox="0 0 18 20" fill="none" xmlns="http://www.w3.org/2000/svg">
<path d="M16.8536 1.1484C16.6583 1.34366 16.3417 1.34366 16.1464 1.1484L15.3536 0.355507C15.1583 0.160245 14.8417 0.160244 14.6464 0.355506L13.8536 1.1484C13.6583 1.34366 13.3417 1.34366 13.1464 1.1484L12.3536 0.355507C12.1583 0.160245 11.8417 0.160244 11.6464 0.355506L10.8536 1.1484C10.6583 1.34366 10.3417 1.34366 10.1464 1.1484L9.35355 0.355507C9.15829 0.160245 8.84171 0.160244 8.64645 0.355506L7.85355 1.1484C7.65829 1.34366 7.34171 1.34366 7.14645 1.1484L6.35355 0.355507C6.15829 0.160245 5.84171 0.160244 5.64645 0.355506L4.85355 1.1484C4.65829 1.34366 4.34171 1.34366 4.14645 1.1484L3.35355 0.355507C3.15829 0.160245 2.84171 0.160244 2.64645 0.355506L1.85355 1.1484C1.65829 1.34366 1.34171 1.34366 1.14645 1.1484L0.853554 0.855507C0.538571 0.540525 0 0.763608 0 1.20906V18.7948C0 19.2403 0.538571 19.4634 0.853553 19.1484L1.14645 18.8555C1.34171 18.6602 1.65829 18.6602 1.85355 18.8555L2.64645 19.6484C2.84171 19.8437 3.15829 19.8437 3.35355 19.6484L4.14645 18.8555C4.34171 18.6602 4.65829 18.6602 4.85355 18.8555L5.64645 19.6484C5.84171 19.8437 6.15829 19.8437 6.35355 19.6484L7.14645 18.8555C7.34171 18.6602 7.65829 18.6602 7.85355 18.8555L8.64645 19.6484C8.84171 19.8437 9.15829 19.8437 9.35355 19.6484L10.1464 18.8555C10.3417 18.6602 10.6583 18.6602 10.8536 18.8555L11.6464 19.6484C11.8417 19.8437 12.1583 19.8437 12.3536 19.6484L13.1464 18.8555C13.3417 18.6602 13.6583 18.6602 13.8536 18.8555L14.6464 19.6484C14.8417 19.8437 15.1583 19.8437 15.3536 19.6484L16.1464 18.8555C16.3417 18.6602 16.6583 18.6602 16.8536 18.8555L17.1464 19.1484C17.4614 19.4634 18 19.2403 18 18.7948V1.20906C18 0.763608 17.4614 0.540524 17.1464 0.855507L16.8536 1.1484ZM16 16.592C16 16.8681 15.7761 17.092 15.5 17.092H2.5C2.22386 17.092 2 16.8681 2 16.592V3.41195C2 3.13581 2.22386 2.91195 2.5 2.91195H15.5C15.7761 2.91195 16 3.13581 16 3.41195V16.592ZM3 13.502C3 13.2258 3.22386 13.002 3.5 13.002H14.5C14.7761 13.002 15 13.2258 15 13.502V14.502C15 14.7781 14.7761 15.002 14.5 15.002H3.5C3.22386 15.002 3 14.7781 3 14.502V13.502ZM3 9.50195C3 9.22581 3.22386 9.00195 3.5 9.00195H14.5C14.7761 9.00195 15 9.22581 15 9.50195V10.502C15 10.7781 14.7761 11.002 14.5 11.002H3.5C3.22386 11.002 3 10.7781 3 10.502V9.50195ZM3 5.50195C3 5.22581 3.22386 5.00195 3.5 5.00195H14.5C14.7761 5.00195 15 5.22581 15 5.50195V6.50195C15 6.7781 14.7761 7.00195 14.5 7.00195H3.5C3.22386 7.00195 3 6.7781 3 6.50195V5.50195Z" fill="black"/>
</svg>
